app/dist/common/images/data-modul-ag.svg

<svg height="18" viewBox="0 0 18 18" width="18" xmlns="http://www.w3.org/2000/svg"><path d="m0 0h18v18h-18z" fill="#f0f3fa"/><path d="m9 13-2.5-3h-1.5v4h1v-3l2.5 3h1l2.5-3v3h1v-4h-1.5zm.95-9h-3.95v4h4.45c1.23 0 1.55-.69 1.55-1.6v-.67c0-1.3-.6-1.73-2.05-1.73zm1.05 2.4c0 .72-.54.6-1.34.6h-2.66v-2h2.68c.8 0 1.32 0 1.32.73z" fill="#0050a0"/></svg>

<!-- by TradingView --><svg width="18" height="18" viewBox="0 0 18 18" xmlns="http://www.w3.org/2000/svg"><path fill="#F0F3FA" d="M0 0h18v18H0z"/><path d="m9 13-2.5-3H5v4h1v-3l2.5 3h1l2.5-3v3h1v-4h-1.5L9 13ZM9.95 4H6v4h4.45C11.68 8 12 7.31 12 6.4v-.67C12 4.43 11.4 4 9.95 4ZM11 6.4c0 .72-.54.6-1.34.6H7V5h2.68c.8 0 1.32 0 1.32.73v.67Z" fill="#0050A0"/></svg>
